X:1
T:Title
%%score { 1 | 2 }
L:1/8
M:2/4
K:Bb
V:1 treble nm="Grand Piano"
V:2 bass 
V:1
 z2 z[Q:1/4=86] [DF] | [DF]2 [B,D]>[DB] | [GB]2 G2 | F2 cd | [DB]2 [DF]2 | [DF]2 [B,D]>[DB] | %6
[M:9/16] [GB]->[GB][EG]-[EG]/[EGe] | %7
[M:2/4] [Fd]2 [Fc]>[DFB][Q:1/4=85][Q:1/4=83][Q:1/4=82][Q:1/4=81][Q:1/4=80][Q:1/4=78][Q:1/4=77][Q:1/4=76][Q:1/4=75][Q:1/4=73][Q:1/4=72][Q:1/4=71][Q:1/4=70][Q:1/4=68][Q:1/4=67][Q:1/4=66] | %8
[M:3/4] [DFB]6 |] %9
V:2
 z2 z [B,,F,B,] | [B,,F,B,]2 [B,,F,]>[B,,F,] | [E,B,E]2 [E,B,E]2 | [F,A,E]2 [F,A,E][F,A,F] | %4
 [B,,F,]2 [B,,F,]2 | [B,,F,B,]2 [B,,F,]>[B,,F,] |[M:9/16] [E,B,E]->[E,B,E][E,B,]-[E,B,]/[C,C] | %7
[M:2/4] [F,B,]2 [F,A,E]>[B,,B,] |[M:3/4] [B,,B,]6 |] %9

